src/assets/icons/navigation_messages.svg

<?xml version="1.0" encoding="UTF-8" standalone="no"?>
<svg width="34px" height="35px" viewBox="0 0 34 35" version="1.1" xmlns="http://www.w3.org/2000/svg" xmlns:xlink="http://www.w3.org/1999/xlink">
    <!-- Generator: Sketch 47.1 (45422) - http://www.bohemiancoding.com/sketch -->
    <title>IC_MESSAGES</title>
    <desc>Created with Sketch.</desc>
    <defs></defs>
    <g id="DRAFTS_1" stroke="none" stroke-width="1" fill="none" fill-rule="evenodd">
        <g id="Assets" transform="translate(-583.000000, -112.000000)" fill="#FFFFFF">
            <g id="Group-8-Copy" transform="translate(583.000000, 112.962891)">
                <path d="M17.5684654,5.62324938 C23.3796811,5.889726 28.1408143,10.6508593 28.4085569,16.4627079 C28.552872,19.6104234 27.4382275,22.5942019 25.2684369,24.8652663 C23.0980134,27.1375966 20.1724673,28.3895936 17.0310814,28.3895936 L8.011386,28.3895936 C7.21385503,28.3895936 6.46632799,27.9977907 6.01186194,27.34141 C5.55739588,26.6856624 5.45359026,25.8488878 5.73462498,25.1019937 L6.8581309,22.104923 C6.0694614,20.5313817 5.64221267,18.786941 5.64221267,17.0000919 C5.64221267,13.8580731 6.89420969,10.9331599 9.16590701,8.76210339 C11.4382373,6.59294576 14.4182181,5.47640241 17.5684654,5.62324938 Z M23.8955444,23.5537709 C25.7026482,21.6612173 26.6324681,19.1736802 26.5122055,16.5500565 C26.2887702,11.7085372 22.3220031,7.74240308 17.4811167,7.51960078 C14.8562271,7.40187002 12.370589,8.32789209 10.4780353,10.1356289 C8.58421578,11.9439987 7.54109591,14.3821648 7.54109591,17.0000919 C7.54109591,19.2844484 8.36457828,21.4915837 9.85963236,23.2164027 C10.2026973,23.6126363 10.1602889,24.2120504 9.76405523,24.5557483 C9.58492725,24.7108238 9.36275791,24.7874121 9.14248745,24.7874121 C8.8766438,24.7874121 8.61206606,24.6766439 8.42470958,24.4601712 C8.32280285,24.3430734 8.2341883,24.2183801 8.13797821,24.0981174 L7.5119797,25.7691347 C7.42399811,26.0052292 7.52527188,26.1913197 7.57274397,26.2603125 C7.62084901,26.3299382 7.75946749,26.4907103 8.011386,26.4907103 L17.0310814,26.4907103 C19.6490085,26.4907103 22.0871745,25.4475905 23.8955444,23.5537709 Z M17.0275368,16.3668143 C17.5516286,16.3668143 17.9769785,16.7921642 17.9769785,17.3162559 C17.9769785,17.8403477 17.5516286,18.2656976 17.0275368,18.2656976 C16.5034451,18.2656976 16.0780952,17.8403477 16.0780952,17.3162559 C16.0780952,16.7921642 16.5034451,16.3668143 17.0275368,16.3668143 Z M11.9638482,16.3668143 C12.48794,16.3668143 12.9132898,16.7921642 12.9132898,17.3162559 C12.9132898,17.8403477 12.48794,18.2656976 11.9638482,18.2656976 C11.4397564,18.2656976 11.0144066,17.8403477 11.0144066,17.3162559 C11.0144066,16.7921642 11.4397564,16.3668143 11.9638482,16.3668143 Z M22.0912255,16.3668143 C22.6153173,16.3668143 23.0406671,16.7921642 23.0406671,17.3162559 C23.0406671,17.8403477 22.6153173,18.2656976 22.0912255,18.2656976 C21.5671337,18.2656976 21.1417839,17.8403477 21.1417839,17.3162559 C21.1417839,16.7921642 21.5671337,16.3668143 22.0912255,16.3668143 Z" id="Combined-Shape"></path>
            </g>
        </g>
    </g>
</svg>

<svg width="34" height="35" viewBox="0 0 34 35" xmlns="http://www.w3.org/2000/svg"><g id="DRAFTS_1" fill="none" fill-rule="evenodd"><g id="Assets" transform="translate(-583 -112)" fill="#FFF"><g id="Group-8-Copy" transform="translate(583 112.963)"><path d="M17.568 5.623c5.812.267 10.573 5.028 10.84 10.84a11.303 11.303 0 0 1-3.14 8.402 11.292 11.292 0 0 1-8.237 3.525h-9.02a2.433 2.433 0 0 1-2.276-3.288l1.123-2.997A11.393 11.393 0 0 1 5.642 17c0-3.142 1.252-6.067 3.524-8.238a11.292 11.292 0 0 1 8.402-3.139zm6.328 17.93a9.426 9.426 0 0 0 2.616-7.003c-.223-4.841-4.19-8.808-9.03-9.03a9.43 9.43 0 0 0-7.004 2.616A9.408 9.408 0 0 0 7.541 17a9.49 9.49 0 0 0 2.319 6.216.95.95 0 0 1-1.435 1.244c-.102-.117-.19-.242-.287-.362l-.626 1.671a.532.532 0 0 0 .5.722h9.02a9.408 9.408 0 0 0 6.864-2.937zm-6.868-7.186a.95.95 0 1 1-.001 1.9.95.95 0 0 1 0-1.9zm-5.064 0a.95.95 0 1 1 0 1.9.95.95 0 0 1 0-1.9zm10.127 0a.95.95 0 1 1 0 1.9.95.95 0 0 1 0-1.9z" id="Combined-Shape"/></g></g></g></svg>
